COLOR/action 16/16/view-history.svg

<svg height="16" width="16" xmlns="http://www.w3.org/2000/svg" xmlns:xlink="http://www.w3.org/1999/xlink"><linearGradient id="a" gradientTransform="matrix(.33595803 0 0 .33595815 -.355552 -83.423971)" gradientUnits="userSpaceOnUse" x1="13.735326" x2="38.099998" y1="249.69423" y2="292.76666"><stop offset="0" stop-color="#e1e1e1"/><stop offset="1" stop-color="#f7f7f7"/></linearGradient><circle cx="8" cy="8" fill="url(#a)" r="8" stroke-width="1.066667"/><g enable-background="new" stroke-width="1.375" transform="matrix(.38787878 0 0 .38787878 -125.42462 -24.436736)"><path d="m331.88535 77.40342 10.77775 6.22254 16.65653-9.616652" fill="none" stroke="#3b3b3b" stroke-width="2.2"/><circle cx="342.66309" cy="83.625961" fill="#f22c42" r="2"/><path d="m342.6631 79.62596v20.8" fill="none" stroke="#f22c42" stroke-width="1.65"/></g><g stroke-width="1.066667"><path d="m8 0a8 8 0 0 0 -8 8 8 8 0 0 0 .0104167.30625 8 8 0 0 1 7.9895833-7.77291667 8 8 0 0 1 7.989583 7.69374997 8 8 0 0 0 .010417-.2270833 8 8 0 0 0 -8-8z" fill="#fff" opacity=".3"/><path d="m15.989583 7.69375a8 8 0 0 1 -7.989583 7.772917 8 8 0 0 1 -7.98958334-7.6937503 8 8 0 0 0 -.01041666.2270833 8 8 0 0 0 8 8 8 8 0 0 0 8-8 8 8 0 0 0 -.01042-.30625z" opacity=".2"/></g></svg>

<?xml version="1.0" encoding="UTF-8" standalone="no"?>
<svg
   xmlns:dc="http://purl.org/dc/elements/1.1/"
   xmlns:cc="http://creativecommons.org/ns#"
   xmlns:rdf="http://www.w3.org/1999/02/22-rdf-syntax-ns#"
   xmlns:svg="http://www.w3.org/2000/svg"
   xmlns="http://www.w3.org/2000/svg"
   xmlns:sodipodi="http://sodipodi.sourceforge.net/DTD/sodipodi-0.dtd"
   xmlns:inkscape="http://www.inkscape.org/namespaces/inkscape"
   height="16"
   width="16"
   version="1.1"
   id="svg21"
   sodipodi:docname="view-history.svg"
   inkscape:version="0.92.4 (5da689c313, 2019-01-14)">
  <metadata
     id="metadata27">
    <rdf:RDF>
      <cc:Work
         rdf:about="">
        <dc:format>image/svg+xml</dc:format>
        <dc:type
           rdf:resource="http://purl.org/dc/dcmitype/StillImage" />
      </cc:Work>
    </rdf:RDF>
  </metadata>
  <defs
     id="defs25" />
  <sodipodi:namedview
     pagecolor="#ffffff"
     bordercolor="#666666"
     borderopacity="1"
     objecttolerance="10"
     gridtolerance="10"
     guidetolerance="10"
     inkscape:pageopacity="0"
     inkscape:pageshadow="2"
     inkscape:window-width="1920"
     inkscape:window-height="1016"
     id="namedview23"
     showgrid="false"
     inkscape:zoom="14.75"
     inkscape:cx="0.30508475"
     inkscape:cy="8"
     inkscape:window-x="0"
     inkscape:window-y="27"
     inkscape:window-maximized="1"
     inkscape:current-layer="svg21" />
  <linearGradient
     id="a"
     gradientTransform="matrix(0.33595803,0,0,0.33595815,-0.35555199,-83.423971)"
     gradientUnits="userSpaceOnUse"
     x1="13.735326"
     x2="38.099998"
     y1="249.69423"
     y2="292.76666">
    <stop
       offset="0"
       stop-color="#e1e1e1"
       id="stop2" />
    <stop
       offset="1"
       stop-color="#f7f7f7"
       id="stop4" />
  </linearGradient>
  <circle
     cx="8"
     cy="8"
     r="8"
     id="circle7"
     style="fill:url(#a);stroke-width:1.06666672" />
  <g
     transform="matrix(0.38787878,0,0,0.38787878,-125.42462,-24.436736)"
     id="g15"
     style="stroke-width:1.375;enable-background:new">
    <path
       d="m 331.88535,77.40342 10.77775,6.22254 16.65653,-9.616652"
       id="path9"
       inkscape:connector-curvature="0"
       style="fill:none;stroke:#3b3b3b;stroke-width:2.20000005" />
    <circle
       cx="342.66309"
       cy="83.625961"
       r="2"
       id="circle11"
       style="fill:#f22c42" />
    <path
       d="m 342.6631,79.62596 v 20.8"
       id="path13"
       inkscape:connector-curvature="0"
       style="fill:none;stroke:#f22c42;stroke-width:1.64999998" />
  </g>
  <path
     d="M 8,0 A 8,8 0 0 0 0,8 8,8 0 0 0 0.0104167,8.30625 8,8 0 0 1 8,0.53333333 8,8 0 0 1 15.989583,8.2270833 8,8 0 0 0 16,8 8,8 0 0 0 8,0 Z"
     id="path17"
     inkscape:connector-curvature="0"
     style="opacity:0.3;fill:#ffffff;stroke-width:1.06666672" />
  <path
     d="M 15.989583,7.69375 A 8,8 0 0 1 8,15.466667 8,8 0 0 1 0.01041666,7.7729167 8,8 0 0 0 0,8 8,8 0 0 0 8,16 8,8 0 0 0 16,8 8,8 0 0 0 15.98958,7.69375 Z"
     id="path19"
     inkscape:connector-curvature="0"
     style="opacity:0.2;stroke-width:1.06666672" />
</svg>
